;FLAVOR:Marlin
;TIME:9451
;Filament used: 7.0086m
;Layer height: 0.2
;MINX:58.494
;MINY:51.371
;MINZ:0.2
;MAXX:158.374
;MAXY:175.287
;MAXZ:15
;Generated with Cura_SteamEngine 4.11.0
M140 S60
M105
M190 S60
M104 S210
M105
M109 S210
M82 ;absolute extrusion mode
; Ender 3 Custom Start G-code
G92 E0 ; Reset Extruder
G28 ; Home all axes
G1 Z2.0 F3000 ; Move Z Axis up little to prevent scratching of Heat Bed
G1 X0.1 Y20 Z0.3 F5000.0 ; Move to start position
G1 X0.1 Y200.0 Z0.3 F1500.0 E15 ; Draw the first line
G1 X0.4 Y200.0 Z0.3 F5000.0 ; Move to side a little
G1 X0.4 Y20 Z0.3 F1500.0 E30 ; Draw the second line
G92 E0 ; Reset Extruder
G1 Z2.0 F3000 ; Move Z Axis up little to prevent scratching of Heat Bed
G1 X5 Y20 Z0.3 F5000.0 ; Move over to prevent blob squish
G92 E0
G92 E0
G1 F1500 E-6.5
;LAYER_COUNT:75
;LAYER:0
M107
G0 F6000 X87.124 Y80.403 Z0.2
;TYPE:SKIRT
G1 F1500 E0
G1 F1200 X87.857 Y79.64 E0.03695
G1 X89.611 Y77.762 E0.12669
G1 X91.296 Y75.852 E0.21564
G1 X92.897 Y73.932 E0.30295
G1 X94.486 Y71.913 E0.39268
G1 X95.387 Y70.711 E0.44514
G1 X95.904 Y70.014 E0.47544
G1 X96.719 Y68.933 E0.52272
G1 X97.342 Y68.123 E0.55841
G1 X98.095 Y67.16 E0.6011
G1 X98.565 Y66.57 E0.62744
G1 X99.072 Y65.941 E0.65566
G1 X99.819 Y65.033 E0.69672
G1 X100.295 Y64.466 E0.72258
G1 X100.631 Y64.073 E0.74063
G1 X101.225 Y63.388 E0.7723
G1 X101.475 Y63.103 E0.78554
G1 X102.121 Y62.379 E0.81942
G1 X102.415 Y62.06 E0.83457
G1 X103.001 Y61.431 E0.86459
G1 X103.151 Y61.273 E0.8722
G1 X103.942 Y60.457 E0.91189
G1 X104.134 Y60.264 E0.9214
G1 X104.848 Y59.563 E0.95634
G1 X105.05 Y59.369 E0.96612
G1 X105.78 Y58.688 E1.00099
G1 X106.048 Y58.446 E1.0136
G1 X106.79 Y57.798 E1.048
G1 X107.067 Y57.564 E1.06067
G1 X107.804 Y56.962 E1.0939
G1 X108.164 Y56.68 E1.10987
G1 X109.203 Y55.901 E1.15522
G1 X109.52 Y55.673 E1.16886
G1 X109.875 Y55.426 E1.18396
G1 X110.216 Y55.197 E1.19831
G1 X110.377 Y55.093 E1.205
G1 X110.881 Y54.775 E1.22581
G1 X111.183 Y54.591 E1.23816
G1 X111.505 Y54.402 E1.2512
G1 X111.72 Y54.279 E1.25985
G1 X112.027 Y54.108 E1.27212
G1 X112.338 Y53.942 E1.28444
G1 X112.877 Y53.664 E1.30562
G1 X113.257 Y53.477 E1.32041
G1 X113.588 Y53.326 E1.33311
G1 X114.472 Y52.941 E1.36679
G1 X114.981 Y52.734 E1.38597
G1 X115.315 Y52.608 E1.39844
G1 X115.69 Y52.474 E1.41235
G1 X116.062 Y52.353 E1.42601
G1 X116.6 Y52.187 E1.44567
G1 X117.195 Y52.021 E1.46725
G1 X117.566 Y51.929 E1.48059
G1 X117.828 Y51.868 E1.48999
G1 X118.179 Y51.79 E1.50255
G1 X118.85 Y51.662 E1.5264
G1 X119.395 Y51.576 E1.54567
G1 X119.687 Y51.534 E1.55597
G1 X119.894 Y51.507 E1.56326
G1 X120.597 Y51.439 E1.58793
G1 X121.298 Y51.393 E1.61246
G1 X121.667 Y51.374 E1.62537
G1 X122.411 Y51.371 E1.65135
G1 X123.247 Y51.395 E1.68056
G1 X123.754 Y51.421 E1.69829
G1 X124.074 Y51.445 E1.70949
G1 X124.715 Y51.512 E1.732
G1 X125.132 Y51.568 E1.74669
G1 X125.62 Y51.645 E1.76395
G1 X126.108 Y51.733 E1.78127
G1 X126.527 Y51.817 E1.79619
G1 X126.749 Y51.866 E1.80413
G1 X127.393 Y52.028 E1.82732
G1 X128.165 Y52.248 E1.85535
G1 X128.567 Y52.371 E1.87004
G1 X128.974 Y52.504 E1.88499
G1 X129.388 Y52.649 E1.90031
G1 X129.999 Y52.876 E1.92307
G1 X130.394 Y53.031 E1.93789
G1 X130.692 Y53.155 E1.94916
G1 X131.015 Y53.296 E1.96147
G1 X131.561 Y53.544 E1.98241
G1 X131.894 Y53.702 E1.99529
G1 X132.419 Y53.962 E2.01575
G1 X132.717 Y54.115 E2.02744
G1 X133.146 Y54.344 E2.04443
G1 X133.46 Y54.518 E2.05696
G1 X133.65 Y54.628 E2.06463
G1 X134.406 Y55.077 E2.09534
G1 X134.634 Y55.216 E2.10466
G1 X134.972 Y55.428 E2.1186
G1 X135.212 Y55.583 E2.12858
G1 X135.983 Y56.095 E2.1609
G1 X136.46 Y56.43 E2.18125
G1 X137.792 Y57.42 E2.23921
G1 X138.115 Y57.67 E2.25348
G1 X139.158 Y58.507 E2.30018
G1 X139.439 Y58.74 E2.31293
G1 X140.415 Y59.578 E2.35785
G1 X140.663 Y59.798 E2.36943
G1 X141.69 Y60.735 E2.41798
G1 X141.907 Y60.939 E2.42838
G1 X142.861 Y61.858 E2.47464
G1 X143.041 Y62.035 E2.48346
G1 X144.088 Y63.092 E2.53542
G1 X144.395 Y63.411 E2.55088
G1 X145.166 Y64.229 E2.59014
G1 X145.53 Y64.622 E2.60884
G1 X146.294 Y65.465 E2.64857
G1 X146.689 Y65.912 E2.66941
G1 X147.378 Y66.705 E2.70609
G1 X147.704 Y67.087 E2.72363
G1 X148.442 Y67.971 E2.76385
G1 X148.781 Y68.386 E2.78256
G1 X149.439 Y69.205 E2.81925
G1 X149.751 Y69.602 E2.83689
G1 X150.44 Y70.495 E2.87628
G1 X150.64 Y70.759 E2.88784
G1 X151.388 Y71.768 E2.93171
G1 X151.635 Y72.11 E2.94644
G1 X152.215 Y72.928 E2.98146
G1 X152.417 Y73.22 E2.99386
G1 X153.046 Y74.15 E3.03307
G1 X153.196 Y74.379 E3.04263
G1 X153.827 Y75.364 E3.08348
G1 X153.994 Y75.632 E3.09451
G1 X154.539 Y76.539 E3.13146
G1 X154.711 Y76.836 E3.14345
G1 X155.202 Y77.714 E3.17858
G1 X155.391 Y78.068 E3.19259
G1 X155.957 Y79.173 E3.23595
G1 X156.123 Y79.51 E3.24907
G1 X156.349 Y79.991 E3.26763
G1 X156.563 Y80.478 E3.28621
G1 X156.809 Y81.075 E3.30876
G1 X156.905 Y81.315 E3.31779
G1 X157.022 Y81.619 E3.32916
G1 X157.133 Y81.922 E3.34043
G1 X157.223 Y82.178 E3.34991
G1 X157.332 Y82.502 E3.36185
G1 X157.52 Y83.095 E3.38357
G1 X157.62 Y83.428 E3.39571
G1 X157.683 Y83.651 E3.40381
G1 X157.756 Y83.924 E3.41368
G1 X157.82 Y84.175 E3.42272
G1 X157.93 Y84.652 E3.43982
G1 X157.966 Y84.825 E3.44599
G1 X158.04 Y85.212 E3.45975
G1 X158.159 Y85.908 E3.48441
G1 X158.259 Y86.643 E3.51031
G1 X158.304 Y87.083 E3.52576
G1 X158.353 Y87.779 E3.55013
G1 X158.371 Y88.247 E3.56648
G1 X158.374 Y89.014 E3.59327
G1 X158.354 Y89.654 E3.61563
G1 X158.31 Y90.348 E3.63991
G1 X158.277 Y90.696 E3.65212
G1 X158.187 Y91.4 E3.67691
G1 X158.11 Y91.88 E3.69389
G1 X158.043 Y92.258 E3.70729
G1 X157.972 Y92.606 E3.7197
G1 X157.899 Y92.935 E3.73147
G1 X157.825 Y93.247 E3.74266
G1 X157.756 Y93.52 E3.7525
G1 X157.645 Y93.927 E3.76723
G1 X157.56 Y94.213 E3.77765
G1 X157.419 Y94.664 E3.79415
G1 X157.293 Y95.043 E3.8081
G1 X157.161 Y95.417 E3.82195
G1 X156.938 Y95.996 E3.84362
G1 X156.628 Y96.738 E3.8717
G1 X156.487 Y97.06 E3.88398
G1 X156.25 Y97.58 E3.90394
G1 X156.117 Y97.862 E3.91483
G1 X155.886 Y98.333 E3.93315
G1 X155.751 Y98.599 E3.94356
G1 X155.453 Y99.167 E3.96596
G1 X155.34 Y99.376 E3.97426
G1 X155.003 Y99.983 E3.99851
G1 X154.568 Y100.734 E4.02882
G1 X154.185 Y101.367 E4.05466
G1 X153.674 Y102.188 E4.08843
G1 X153.255 Y102.843 E4.11558
G1 X152.91 Y103.372 E4.13764
G1 X152.256 Y104.353 E4.17881
G1 X151.881 Y104.904 E4.20209
G1 X151.33 Y105.702 E4.23596
G1 X150.585 Y106.767 E4.28135
G1 X149.627 Y108.111 E4.33899
G1 X149.064 Y108.891 E4.37258
G1 X147.911 Y110.47 E4.44086
G1 X146.813 Y111.952 E4.50527
G1 X146.39 Y112.517 E4.52992
G1 X145.558 Y113.594 E4.57745
G1 X144.523 Y114.899 E4.63562
G1 X142.99 Y116.945 E4.7249
G1 X141.575 Y118.952 E4.81066
G1 X140.169 Y121.07 E4.89944
G1 X138.84 Y123.202 E4.98718
G1 X137.564 Y125.385 E5.07549
G1 X136.354 Y127.593 E5.16342
G1 X135.207 Y129.835 E5.25137
G1 X134.127 Y132.101 E5.33903
G1 X133.115 Y134.395 E5.42659
G1 X132.163 Y136.722 E5.5144
G1 X131.272 Y139.088 E5.60269
G1 X130.24 Y142.121 E5.71458
G1 X130.065 Y142.666 E5.73457
G1 X129.741 Y143.546 E5.76732
G1 X129.342 Y144.395 E5.80008
G1 X128.884 Y145.19 E5.83212
G1 X128.424 Y145.914 E5.86207
G1 X127.878 Y146.75 E5.89695
G1 X127.069 Y147.968 E5.94801
G1 X126.427 Y148.925 E5.98826
G1 X125.997 Y149.56 E6.01504
G1 X125.239 Y150.669 E6.06195
G1 X124.483 Y151.765 E6.10845
G1 X123.621 Y152.991 E6.16079
G1 X122.617 Y154.395 E6.22107
G1 X121.882 Y155.406 E6.26472
G1 X121.304 Y156.188 E6.29868
G1 X120.846 Y156.802 E6.32543
G1 X120.106 Y157.78 E6.36826
G1 X119.608 Y158.429 E6.39683
G1 X119.212 Y158.939 E6.41938
G1 X118.738 Y159.541 E6.44614
G1 X118.284 Y160.113 E6.47164
G1 X117.504 Y161.074 E6.51486
G1 X117.057 Y161.615 E6.53937
G1 X116.562 Y162.205 E6.56627
G1 X116.247 Y162.574 E6.58321
G1 X115.45 Y163.491 E6.62564
G1 X114.722 Y164.305 E6.66378
G1 X114.579 Y164.462 E6.6712
G1 X113.851 Y165.245 E6.70853
G1 X113.693 Y165.411 E6.71654
G1 X112.933 Y166.195 E6.75467
G1 X112.747 Y166.383 E6.76391
G1 X112.038 Y167.08 E6.79863
G1 X111.827 Y167.282 E6.80883
G1 X111.088 Y167.971 E6.84411
G1 X110.819 Y168.214 E6.85677
G1 X110.074 Y168.864 E6.8913
G1 X109.798 Y169.096 E6.90389
G1 X109.063 Y169.696 E6.93703
G1 X108.706 Y169.976 E6.95287
G1 X107.667 Y170.755 E6.99823
G1 X107.314 Y171.009 E7.01341
G1 X106.911 Y171.287 E7.03051
G1 X106.532 Y171.537 E7.04637
G1 X105.95 Y171.904 E7.0704
G1 X105.685 Y172.066 E7.08124
G1 X105.396 Y172.237 E7.09297
G1 X105.111 Y172.399 E7.10442
G1 X104.814 Y172.563 E7.11627
G1 X104.547 Y172.706 E7.12684
G1 X103.949 Y173.015 E7.15035
G1 X103.292 Y173.328 E7.17577
G1 X102.422 Y173.707 E7.20891
G1 X102.021 Y173.872 E7.22405
G1 X101.831 Y173.946 E7.23117
G1 X101.498 Y174.07 E7.24358
G1 X101.223 Y174.167 E7.25377
G1 X100.807 Y174.304 E7.26906
G1 X100.269 Y174.47 E7.28872
G1 X99.674 Y174.636 E7.3103
G1 X99.303 Y174.728 E7.32365
G1 X99.041 Y174.789 E7.33304
G1 X98.69 Y174.867 E7.3456
G1 X98.018 Y174.995 E7.36949
G1 X97.479 Y175.08 E7.38854
G1 X97.161 Y175.125 E7.39976
G1 X96.95 Y175.152 E7.40719
G1 X96.277 Y175.217 E7.4308
G1 X95.563 Y175.264 E7.45579
G1 X95.241 Y175.281 E7.46705
G1 X94.46 Y175.287 E7.49433
G1 X93.644 Y175.264 E7.52284
G1 X93.106 Y175.235 E7.54165
G1 X92.744 Y175.207 E7.55433
G1 X92.114 Y175.14 E7.57646
G1 X91.723 Y175.087 E7.59024
G1 X91.249 Y175.012 E7.607
G1 X90.761 Y174.924 E7.62431
G1 X90.342 Y174.84 E7.63924
G1 X90.12 Y174.791 E7.64718
G1 X89.476 Y174.629 E7.67037
G1 X88.704 Y174.409 E7.6984
G1 X88.298 Y174.285 E7.71323
G1 X87.864 Y174.143 E7.72918
G1 X87.465 Y174.003 E7.74394
G1 X87.006 Y173.833 E7.76104
G1 X86.625 Y173.684 E7.77532
G1 X86.066 Y173.453 E7.79645
G1 X85.701 Y173.295 E7.81034
G1 X85.324 Y173.123 E7.82481
G1 X84.999 Y172.968 E7.83738
G1 X84.441 Y172.691 E7.85914
G1 X84.114 Y172.521 E7.87201
G1 X83.6 Y172.244 E7.8924
G1 X83.217 Y172.028 E7.90776
G1 X82.529 Y171.621 E7.93567
G1 X82.273 Y171.465 E7.94614
G1 X81.866 Y171.209 E7.96294
G1 X81.624 Y171.052 E7.97301
G1 X80.839 Y170.529 E8.00595
G1 X80.382 Y170.208 E8.02545
G1 X79.086 Y169.246 E8.08182
G1 X78.757 Y168.992 E8.09634
G1 X77.724 Y168.163 E8.14259
G1 X77.44 Y167.927 E8.15549
G1 X76.46 Y167.085 E8.20061
G1 X76.214 Y166.867 E8.21209
G1 X75.196 Y165.938 E8.26022
G1 X74.989 Y165.744 E8.27013
G1 X73.956 Y164.75 E8.32019
G1 X73.697 Y164.493 E8.33293
G1 X72.756 Y163.539 E8.37973
G1 X72.476 Y163.248 E8.39383
G1 X71.694 Y162.419 E8.43363
G1 X71.316 Y162.01 E8.45308
G1 X70.578 Y161.196 E8.49146
G1 X70.22 Y160.791 E8.51033
G1 X69.49 Y159.952 E8.54917
G1 X69.127 Y159.524 E8.56877
G1 X68.429 Y158.689 E8.60678
G1 X68.113 Y158.303 E8.6242
G1 X67.41 Y157.429 E8.66337
G1 X67.114 Y157.053 E8.68008
G1 X66.393 Y156.117 E8.72134
G1 X66.184 Y155.84 E8.73346
G1 X65.512 Y154.933 E8.77288
G1 X65.298 Y154.637 E8.78564
G1 X64.611 Y153.666 E8.82718
G1 X64.483 Y153.481 E8.83504
G1 X63.82 Y152.502 E8.87633
G1 X63.664 Y152.265 E8.88624
G1 X63.041 Y151.292 E8.92659
G1 X62.878 Y151.03 E8.93736
G1 X62.332 Y150.122 E8.97436
G1 X62.162 Y149.829 E8.98619
G1 X61.687 Y148.981 E9.02014
G1 X61.491 Y148.615 E9.03464
G1 X60.897 Y147.454 E9.08018
G1 X60.733 Y147.119 E9.09321
G1 X60.517 Y146.659 E9.11096
G1 X60.306 Y146.181 E9.1292
G1 X60.067 Y145.602 E9.15108
G1 X59.967 Y145.352 E9.16048
G1 X59.834 Y145.006 E9.17343
G1 X59.718 Y144.689 E9.18522
G1 X59.632 Y144.443 E9.19432
G1 X59.525 Y144.119 E9.20623
G1 X59.34 Y143.532 E9.22773
G1 X59.234 Y143.175 E9.24073
G1 X59.107 Y142.71 E9.25757
G1 X59.039 Y142.441 E9.26726
G1 X58.939 Y142.006 E9.28284
G1 X58.847 Y141.568 E9.29847
G1 X58.743 Y141.002 E9.31857
G1 X58.692 Y140.675 E9.33013
G1 X58.618 Y140.099 E9.35041
G1 X58.564 Y139.571 E9.36895
G1 X58.515 Y138.863 E9.39373
G1 X58.497 Y138.382 E9.41054
G1 X58.494 Y137.63 E9.4368
G1 X58.511 Y137.082 E9.45595
G1 X58.557 Y136.37 E9.48087
G1 X58.605 Y135.871 E9.49837
G1 X58.692 Y135.19 E9.52235
G1 X58.749 Y134.833 E9.53498
G1 X58.811 Y134.479 E9.54753
G1 X58.84 Y134.329 E9.55286
G1 X58.905 Y134.016 E9.56403
G1 X58.975 Y133.703 E9.57523
G1 X59.05 Y133.391 E9.58643
G1 X59.135 Y133.057 E9.59847
G1 X59.288 Y132.513 E9.61821
G1 X59.443 Y132.013 E9.63649
G1 X59.593 Y131.565 E9.65299
G1 X59.72 Y131.21 E9.66615
G1 X59.919 Y130.693 E9.6855
G1 X60.249 Y129.899 E9.71553
G1 X60.408 Y129.535 E9.7294
G1 X60.591 Y129.136 E9.74473
G1 X60.714 Y128.879 E9.75468
G1 X61.021 Y128.253 E9.77903
G1 X61.157 Y127.984 E9.78956
G1 X61.421 Y127.481 E9.8094
G1 X61.53 Y127.278 E9.81744
G1 X61.78 Y126.825 E9.83551
G1 X62.233 Y126.04 E9.86716
G1 X62.591 Y125.441 E9.89153
G1 X62.679 Y125.296 E9.89746
G1 X63.136 Y124.562 E9.92765
G1 X63.552 Y123.91 E9.95466
G1 X63.961 Y123.28 E9.98089
G1 X65.21 Y121.323 E10.06197
G1 X66.502 Y119.168 E10.14972
G1 X67.741 Y116.964 E10.23802
G1 X68.914 Y114.734 E10.32602
G1 X70.017 Y112.483 E10.41356
G1 X71.058 Y110.199 E10.50122
G1 X72.045 Y107.86 E10.58988
G1 X72.96 Y105.508 E10.67801
G1 X73.806 Y103.132 E10.76609
G1 X74.554 Y100.831 E10.85059
G1 X74.902 Y99.711 E10.89155
G1 X75.048 Y99.275 E10.90761
G1 X75.195 Y98.863 E10.92288
G1 X75.403 Y98.326 E10.94299
G1 X75.672 Y97.681 E10.9674
G1 X75.814 Y97.354 E10.97985
G1 X76.045 Y96.847 E10.99931
G1 X76.178 Y96.566 E11.01017
G1 X76.481 Y95.948 E11.0342
G1 X76.62 Y95.674 E11.04493
G1 X76.899 Y95.143 E11.06588
G1 X77.198 Y94.597 E11.08762
G1 X77.303 Y94.41 E11.09511
G1 X77.682 Y93.754 E11.12157
G1 X78.073 Y93.102 E11.14812
G1 X78.526 Y92.37 E11.17818
G1 X79.078 Y91.504 E11.21405
G1 X79.699 Y90.558 E11.25357
G1 X80.44 Y89.459 E11.29986
G1 X81.186 Y88.381 E11.34564
G1 X81.683 Y87.673 E11.37585
G1 X82.61 Y86.37 E11.43169
G1 X83.805 Y84.721 E11.50281
G1 X85.024 Y83.062 E11.57471
G1 X85.926 Y81.854 E11.62736
G1 X86.326 Y81.332 E11.65033
G1 X87.124 Y80.403 E11.6931
G0 F6000 X87.413 Y80.68
G1 F1200 X88.119 Y79.945 E11.72869
G1 X89.92 Y78.017 E11.82083
G1 X91.586 Y76.127 E11.90881
G1 X93.22 Y74.168 E11.9979
G1 X94.796 Y72.166 E12.08688
G1 X95.729 Y70.922 E12.14119
G1 X96.223 Y70.255 E12.17018
G1 X97.036 Y69.177 E12.21733
G1 X97.658 Y68.369 E12.25294
G1 X98.408 Y67.409 E12.29549
G1 X98.876 Y66.821 E12.32173
G1 X99.381 Y66.195 E12.34982
G1 X100.126 Y65.29 E12.39076
G1 X100.6 Y64.725 E12.41651
G1 X100.933 Y64.335 E12.43442
G1 X101.525 Y63.652 E12.46599
G1 X101.773 Y63.369 E12.47913
G1 X102.417 Y62.649 E12.51286
G1 X102.707 Y62.332 E12.52787
G1 X103.293 Y61.703 E12.55789
G1 X103.438 Y61.551 E12.56523
G1 X104.229 Y60.735 E12.60491
G1 X104.414 Y60.549 E12.61408
G1 X105.128 Y59.848 E12.64902
G1 X105.323 Y59.661 E12.65846
G1 X106.053 Y58.98 E12.69332
G1 X106.311 Y58.747 E12.70546
G1 X107.053 Y58.099 E12.73986
G1 X107.32 Y57.874 E12.75206
G1 X108.057 Y57.272 E12.78529
G1 X108.404 Y57 E12.80069
G1 X109.443 Y56.221 E12.84604
G1 X109.748 Y56.001 E12.85917
G1 X110.103 Y55.754 E12.87428
G1 X110.436 Y55.531 E12.88827
G1 X110.591 Y55.431 E12.89472
G1 X111.095 Y55.113 E12.91553
G1 X111.385 Y54.936 E12.92739
G1 X111.707 Y54.747 E12.94043
G1 X112.222 Y54.458 E12.96106
G1 X112.521 Y54.297 E12.97292
G1 X113.06 Y54.019 E12.99409
G1 X113.429 Y53.838 E13.00845
G1 X113.747 Y53.693 E13.02065
G1 X114.631 Y53.308 E13.05433
G1 X115.123 Y53.108 E13.07287
G1 X115.457 Y52.982 E13.08534
G1 X115.818 Y52.853 E13.09873
G1 X116.18 Y52.735 E13.11203
G1 X116.718 Y52.569 E13.13169
G1 X117.292 Y52.41 E13.15249
G1 X117.663 Y52.318 E13.16584
G1 X117.915 Y52.258 E13.17489
G1 X118.266 Y52.18 E13.18744
G1 X118.913 Y52.058 E13.21044
G1 X119.458 Y51.972 E13.2297
G1 X119.739 Y51.931 E13.23962
G1 X119.946 Y51.904 E13.24691
G1 X120.623 Y51.838 E13.27067
G1 X121.324 Y51.792 E13.2952
G1 X121.682 Y51.774 E13.30772
G1 X122.399 Y51.77 E13.33276
G1 X123.235 Y51.794 E13.36197
G1 X123.724 Y51.82 E13.37907
G1 X124.044 Y51.844 E13.39028
G1 X124.662 Y51.908 E13.41197
G1 X125.079 Y51.964 E13.42667
